X:121
T:March In Blue(beard). JBs.121
S:Jas.Blackshaw MS, 1837, N.Shropshire
A:North Shropshire
Z:T. Weatherall 2006
M:C
L:1/8
Q:220
R:March
K:C
g3fe2d2|c4d4|edefg2fe|d2d>dd2z2|!
g3fe2d2|c4d4|edef e2d2|c2c>cc2z2:|!
|:d3cB2c2|d4e4|fefg agfe|d2d>dd2z2|!
d3cB2c2|d2d>dd2e2|d2c2B2A2|G2G>GG2z2:|

